actions/24/run.svg

<?xml version="1.0" encoding="UTF-8" standalone="no"?>
<!-- Created with Inkscape (http://www.inkscape.org/) -->

<svg
   xmlns:dc="http://purl.org/dc/elements/1.1/"
   xmlns:cc="http://creativecommons.org/ns#"
   xmlns:rdf="http://www.w3.org/1999/02/22-rdf-syntax-ns#"
   xmlns:svg="http://www.w3.org/2000/svg"
   xmlns="http://www.w3.org/2000/svg"
   xmlns:sodipodi="http://sodipodi.sourceforge.net/DTD/sodipodi-0.dtd"
   xmlns:inkscape="http://www.inkscape.org/namespaces/inkscape"
   version="1.1"
   width="24"
   height="24"
   id="svg13094"
   inkscape:version="0.48.3.1 r9886"
   sodipodi:docname="run.svg"
   inkscape:export-filename="folder.png"
   inkscape:export-xdpi="90"
   inkscape:export-ydpi="90">
  <sodipodi:namedview
     pagecolor="#ffffff"
     bordercolor="#666666"
     borderopacity="1"
     objecttolerance="10"
     gridtolerance="10"
     guidetolerance="10"
     inkscape:pageopacity="0"
     inkscape:pageshadow="2"
     inkscape:window-width="1920"
     inkscape:window-height="1027"
     id="namedview6"
     showgrid="true"
     inkscape:snap-bbox="true"
     inkscape:bbox-paths="true"
     inkscape:bbox-nodes="true"
     inkscape:snap-bbox-edge-midpoints="true"
     inkscape:snap-bbox-midpoints="true"
     inkscape:object-paths="true"
     inkscape:snap-intersection-paths="true"
     inkscape:object-nodes="true"
     inkscape:snap-smooth-nodes="true"
     inkscape:snap-midpoints="true"
     inkscape:snap-object-midpoints="true"
     inkscape:snap-center="true"
     inkscape:zoom="41.7193"
     inkscape:cx="11.968698"
     inkscape:cy="11.706281"
     inkscape:window-x="-10"
     inkscape:window-y="31"
     inkscape:window-maximized="1"
     inkscape:current-layer="svg13094"
     inkscape:snap-global="true">
    <inkscape:grid
       type="xygrid"
       id="grid2983"
       empspacing="5"
       visible="true"
       enabled="true"
       snapvisiblegridlinesonly="true" />
  </sodipodi:namedview>
  <defs
     id="defs7">
    <inkscape:path-effect
       effect="spiro"
       id="path-effect2985"
       is_visible="true" />
  </defs>
  <metadata
     id="metadata13099">
    <rdf:RDF>
      <cc:Work
         rdf:about="">
        <dc:format>image/svg+xml</dc:format>
        <dc:type
           rdf:resource="http://purl.org/dc/dcmitype/StillImage" />
        <dc:title />
      </cc:Work>
    </rdf:RDF>
  </metadata>
  <path
     id="path2984"
     d="M 5,4 C 4.446,4 4,4.446 4,5 l 0,14 c 0,0.554 0.446,1 1,1 l 14,0 c 0.554,0 1,-0.446 1,-1 L 20,5 C 20,4.446 19.554,4 19,4 L 5,4 z m 5.71875,3.28125 4,4 0.6875,0.71875 -0.6875,0.71875 -4,4 -1.4375,-1.4375 L 12.5625,12 9.28125,8.71875 l 1.4375,-1.4375 z"
     style="color:#000000;fill:#EDEFF3;fill-opacity:0.758;fill-rule:nonzero;stroke:none;stroke-width:2;marker:none;visibility:visible;display:inline;overflow:visible;enable-background:accumulate"
     inkscape:connector-curvature="0" />
  <path
     style="font-size:medium;font-style:normal;font-variant:normal;font-weight:normal;font-stretch:normal;text-indent:0;text-align:start;text-decoration:none;line-height:normal;letter-spacing:normal;word-spacing:normal;text-transform:none;direction:ltr;block-progression:tb;writing-mode:lr-tb;text-anchor:start;baseline-shift:baseline;color:#000000;fill:#485462;fill-opacity:0.7;fill-rule:nonzero;stroke:none;stroke-width:2;marker:none;visibility:visible;display:inline;overflow:visible;enable-background:accumulate;font-family:Sans;-inkscape-font-specification:Sans"
     d="M 5,3 C 3.9092972,3 3,3.9092972 3,5 l 0,14 c 0,1.090703 0.9092972,2 2,2 l 14,0 c 1.090703,0 2,-0.909297 2,-2 L 21,5 C 21,3.9092972 20.090703,3 19,3 z m 0,1 14,0 c 0.554,0 1,0.446 1,1 l 0,14 c 0,0.554 -0.446,1 -1,1 L 5,20 C 4.446,20 4,19.554 4,19 L 4,5 C 4,4.446 4.446,4 5,4 z M 10.71875,7.28125 9.28125,8.71875 12.5625,12 l -3.28125,3.28125 1.4375,1.4375 4,-4 L 15.40625,12 14.71875,11.28125 z"
     id="path2989"
     inkscape:connector-curvature="0"
     sodipodi:nodetypes="ssssssssssssssssssccccccccc" />
</svg>

<?xml version="1.0" encoding="UTF-8"?>
<svg id="a" width="24" height="24" version="1.1" xmlns="http://www.w3.org/2000/svg" xmlns:cc="http://creativecommons.org/ns#" xmlns:dc="http://purl.org/dc/elements/1.1/" xmlns:rdf="http://www.w3.org/1999/02/22-rdf-syntax-ns#">
	<metadata id="c">
		<rdf:RDF>
			<cc:Work rdf:about="">
				<dc:format>image/svg+xml</dc:format>
				<dc:type rdf:resource="http://purl.org/dc/dcmitype/StillImage"/>
				<dc:title/>
			</cc:Work>
		</rdf:RDF>
	</metadata>
	<defs>
		<style id="current-color-scheme" type="text/css">.ColorScheme-Text {color:#090d11;}.ColorScheme-Background{color:#ffffff;}</style>
	</defs>
	<path id="b" d="m5 4c-0.554 0-1 0.446-1 1v14c0 0.554 0.446 1 1 1h14c0.554 0 1-0.446 1-1v-14c0-0.554-0.446-1-1-1h-14zm5.7188 3.2812 4 4 0.6875 0.71875-0.6875 0.71875-4 4-1.4375-1.4375l3.2812-3.2812-3.2812-3.2812 1.4375-1.4375z" style="fill-opacity:.75;fill:currentColor" class="ColorScheme-Text"/>
	<path id="d" d="m5 3c-1.0907 0-2 0.9093-2 2v14c0 1.0907 0.9093 2 2 2h14c1.0907 0 2-0.9093 2-2v-14c0-1.0907-0.9093-2-2-2zm0 1h14c0.554 0 1 0.446 1 1v14c0 0.554-0.446 1-1 1h-14c-0.554 0-1-0.446-1-1v-14c0-0.554 0.446-1 1-1zm5.7188 3.2812-1.4375 1.4375 3.2812 3.2812l-3.2812 3.2812 1.4375 1.4375 4-4 0.6875-0.71875-0.6875-0.71875z" style="fill-opacity:.5;fill:currentColor" class="ColorScheme-Background"/>
</svg>
